X:31
T:Bourre
R:
C:Johann Krieger
H:1651-1735
N:
Z:<anamnese@laposte.net> -- http://anamnese.fr.st
M:C
L:1/8
Q:1/4=120
K:C
V:1
ed | c2 A2 d2f2 | e2 dc B2 ed | c2 BA (~^G3A) | A6 ::
V:2
%%MIDI transpose -12
z2 | z2 gfe2d2 | e2 ^f2 ^g2 e2 | a2 d2 e4 | a4 A2 ::
